config/expand/iconfont/module-menu/module-renliziyuan_active.svg

<?xml version="1.0" encoding="UTF-8"?>
<svg width="24px" height="24px" viewBox="0 0 24 24" version="1.1" xmlns="http://www.w3.org/2000/svg" xmlns:xlink="http://www.w3.org/1999/xlink">
    <!-- Generator: Sketch 53 (72520) - https://sketchapp.com -->
    <title>renliziyuanActive</title>
    <desc>Created with Sketch.</desc>
    <g id="Page-2" stroke="none" stroke-width="1" fill="none" fill-rule="evenodd">
        <g id="图标" transform="translate(-893.000000, -241.000000)">
            <g id="renliziyuanActive" transform="translate(893.000000, 241.000000)">
                <path d="M11.5000895,22 C5.71024776,22 1,17.514135 1,12.0000852 C1,6.48589343 5.71024776,2 11.5000895,2 C17.2898119,2 22,6.48589343 22,12.0000852 C22,17.514135 17.2898417,22 11.5000895,22 Z M11.5255936,3.82468834 C7.0718311,3.82468834 2.98538688,7.76372784 2.98538688,12.005389 C2.98538688,16.2469299 7.07185634,20.129547 11.5255936,20.129547 C15.9792046,20.129547 20.0658002,16.2415409 20.0658002,12 C20.0658002,7.75833887 15.9792046,3.82468834 11.5255936,3.82468834 Z" id="Shape" fill="#FFFFFF" fill-rule="nonzero"></path>
                <path d="M5.45444318,13 L0.545352273,13 C0.244261364,13 0,12.552153 0,12.000125 C0,11.448097 0.244295455,11 0.545352273,11 L5.45444318,11 C5.75556818,11 6,11.4481595 6,12.000125 C6,12.5520905 5.75556818,13 5.45444318,13 Z" id="Path" fill="#FFFFFF"></path>
                <path d="M23.4544432,13 L18.5453523,13 C18.2442614,13 18,12.552153 18,12.000125 C18,11.448097 18.2442955,11 18.5453523,11 L23.4544432,11 C23.7555682,11 24,11.4481595 24,12.000125 C24,12.5520905 23.7555682,13 23.4544432,13 Z" id="Path-Copy-5" fill="#FFFFFF" transform="translate(21.000000, 12.000000) rotate(-180.000000) translate(-21.000000, -12.000000) "></path>
                <path d="M13.5453693,4 L9.45446023,4 C9.20355114,4 9,3.55215299 9,3.00012499 C9,2.44809699 9.20357955,2 9.45446023,2 L13.5453693,2 C13.7963068,2 14,2.44815949 14,3.00012499 C14,3.55209049 13.7963068,4 13.5453693,4 Z" id="Path-Copy-6" fill="#FFFFFF" transform="translate(11.500000, 3.000000) rotate(-270.000000) translate(-11.500000, -3.000000) "></path>
                <path d="M13.5453693,22 L9.45446023,22 C9.20355114,22 9,21.552153 9,21.000125 C9,20.448097 9.20357955,20 9.45446023,20 L13.5453693,20 C13.7963068,20 14,20.4481595 14,21.000125 C14,21.5520905 13.7963068,22 13.5453693,22 Z" id="Path-Copy-7" fill="#FFFFFF" transform="translate(11.500000, 21.000000) rotate(-90.000000) translate(-11.500000, -21.000000) "></path>
                <path d="M10.4165185,11.3503367 C10.1554671,11.0687256 10,10.7158484 10,10.3332726 L10,9.66662327 C10,8.7477097 10.8972026,8 12.00005,8 C13.1027974,8 14,8.74768886 14,9.66662327 L14,10.3332726 C14,10.7158352 13.8445507,11.0686954 13.5835334,11.3502974 L15.6043079,12.6131041 C15.851733,12.7674853 16.0002777,13.0277401 15.9999996,13.3063677 L15.9999996,14.7501569 C15.9999996,14.8604364 15.9532222,14.9667839 15.869695,15.0446436 C15.8279175,15.0837296 14.8340356,16 13.3341017,16 L10.6657038,16 C9.16576985,16 8.17141573,15.0837296 8.1296938,15.0446175 C8.04659433,14.9664129 7.99995618,14.8605147 8.00000027,14.7501309 L8.00000027,13.3063156 C7.99977037,13.0277383 8.14824234,12.7675294 8.39555304,12.6130781 L10.4165185,11.3503367 Z" id="Combined-Shape" fill="#FFFFFF"></path>
                <path d="M16,15 L16.0159,15 L16,15 Z" id="Shape" fill="#484848" fill-rule="nonzero"></path>
            </g>
        </g>
    </g>
</svg>

<svg width="24" height="24" xmlns="http://www.w3.org/2000/svg"><g><path d="M11.5 22C5.71 22 1 17.514 1 12S5.71 2 11.5 2 22 6.486 22 12s-4.71 10-10.5 10zm.026-18.175c-4.454 0-8.54 3.939-8.54 8.18 0 4.242 4.086 8.125 8.54 8.125 4.453 0 8.54-3.888 8.54-8.13 0-4.242-4.087-8.175-8.54-8.175z"/><path d="M5.454 13H.545C.245 13 0 12.552 0 12s.244-1 .545-1h4.91c.3 0 .545.448.545 1s-.244 1-.546 1zM18.546 11h4.909c.3 0 .545.448.545 1s-.244 1-.545 1h-4.91c-.3 0-.545-.448-.545-1s.244-1 .546-1zM10.5 5.045V.955c0-.251.448-.455 1-.455s1 .204 1 .454v4.091c0 .251-.448.455-1 .455s-1-.204-1-.455zM12.5 18.955v4.09c0 .251-.448.455-1 .455s-1-.204-1-.454v-4.091c0-.251.448-.455 1-.455s1 .204 1 .455zM10.417 11.35A1.491 1.491 0 0110 10.333v-.666C10 8.747 10.897 8 12 8s2 .748 2 1.667v.666c0 .383-.155.736-.416 1.017l2.02 1.263a.82.82 0 01.396.693v1.444c0 .11-.047.217-.13.295a3.959 3.959 0 01-2.536.955h-2.668a3.96 3.96 0 01-2.536-.955.404.404 0 01-.13-.295v-1.444a.82.82 0 01.396-.693l2.02-1.263z"/><path d="M16 15h.016H16z"/></g></svg>
